OK-Plus/Components/Asset Tree Template/Icons/Final Icons/in_place_asset_type.svg

<svg xmlns="http://www.w3.org/2000/svg" width="24" height="24">
  <g fill-rule="evenodd" transform="matrix(-1 0 0 1 24.709 -.715)">
    <path fill-rule="nonzero" d="M19.2310087 22.4218376c.1848763.41051.0019564.8930794-.4087167 1.0779557l-2.0827108.9380758c-.1969405.0890145-.4214331.0956987-.6235906.0190745-.2023204-.0766242-.3656767-.2303617-.4545282-.4274652l-.9669321-2.1467817c-1.1148005.2420999-2.2718258.2779665-3.4027664.1036872l-.8342255 2.2018859c-.0766242.2023205-.2303617.3656768-.4274652.4545282-.10629567.0479309-.22057985.0718964-.33486402.0718964-.09765509 0-.19563624-.0176073-.28872648-.0528218l-2.13618474-.809282c-.42094398-.1594435-.63288324-.6301117-.4734397-1.0510557l.83438857-2.2020489c-.96106304-.6186996-1.80278797-1.4103743-2.47952634-2.3324731l-2.14694473.9670952c-.19710351.0890145-.42127004.0956987-.62359052.0190745-.20215745-.0766242-.36567674-.2303617-.45436517-.4274652l-.93823881-2.0827108c-.08885146-.1971035-.09569873-.4214331-.01907454-.6235905.0766242-.2023205.23036168-.3656768.42746519-.4545282l2.14710776-.9670952c-.24209985-1.1177351-.27731437-2.2729671-.10385024-3.4026033l-2.20204893-.8343886c-.42094398-.1594436-.63288324-.63011174-.4734397-1.05105572l.80928191-2.13602171c.0766242-.20232048.23036168-.36567674.42746519-.4545282.19726655-.08868843.4215961-.0955357.62359052-.01907453l2.20204894.83438857c.61869961-.96090001 1.4105373-1.80278797 2.3324731-2.47952634L6.1925053 3.00803814c-.18487625-.41051004-.00211939-.89307944.40839065-1.07795569L8.68376981.99184364c.19710352-.08885146.4215961-.0955357.62359052-.01907454.20232048.0766242.36567675.23036168.45452821.42746519l.96693216 2.1467817c1.1149635-.24209985 2.2718258-.27812952 3.4027663-.10368721l.8342256-2.2018859c.0766242-.20232048.2303617-.36567674.4274652-.4545282.1972665-.08885146.4215961-.0955357.6235905-.01907454l2.1360217.80944495c.420944.15944354.6328832.63011173.4734397 1.05105571l-.8343886 2.20204894c.9609.61869961 1.802788 1.4105373 2.4795264 2.33247309l2.1469447-.96709515c.410184-.18471322.8930794-.00211939 1.0779557.40839065l.9382388 2.08271083c.0888515.19710351.0956987.42143307.0190745.62359052-.0766242.20232048-.2303616.36567674-.4274652.4545282l-2.1469447.96709512c.2420999 1.1178981.2773144 2.2728041.1038502 3.4026034l2.202049.8343886c.2023205.0766241.3656767.2303616.4545282.4274651.0888514.1971036.0956987.4214331.0190745.6235906l-.8092819 2.1361847c-.1594435.420944-.6299487.6330463-1.0510557.4734397l-2.2020489-.8343886c-.6186997.9609-1.4105374 1.802788-2.3324731 2.4795264l.9670951 2.1469447zm-1.3508682-7.7486625c.5231639-1.3805397.4773524-2.8822109-.12912-4.2283513-.6063093-1.34597732-1.700568-2.37535001-3.0811077-2.8983509-.6309269-.23900228-1.2894059-.36029675-1.9571776-.36029675-2.2829119 0-4.36040579 1.43482881-5.16952468 3.57052445-.52300089 1.3805398-.4771894 2.8822109.12911992 4.2281883.60630932 1.3461404 1.70056803 2.3755131 3.08110776 2.8985139.6309269.2390023 1.2894059.3602968 1.9571776.3602968 2.2829119 0 4.3604058-1.4348288 5.1695247-3.5705245z"/>
    <circle cx="12.712" cy="12.723" r="3.166"/>
  </g>
</svg>

<svg xmlns="http://www.w3.org/2000/svg" width="24" height="24" viewBox="0 0 24 24">
  <g fill-rule="evenodd" transform="translate(-.714 -.715)">
    <path fill-rule="nonzero" d="M19.2310087,22.4218376 C19.415885,22.8323476 19.2329651,23.314917 18.822292,23.4997933 L16.7395812,24.4378691 C16.5426407,24.5268836 16.3181481,24.5335678 16.1159906,24.4569436 C15.9136702,24.3803194 15.7503139,24.2265819 15.6614624,24.0294784 L14.6945303,21.8826967 C13.5797298,22.1247966 12.4227045,22.1606632 11.2917639,21.9863839 L10.4575384,24.1882698 C10.3809142,24.3905903 10.2271767,24.5539466 10.0300732,24.642798 C9.92377753,24.6907289 9.80949335,24.7146944 9.69520918,24.7146944 C9.59755409,24.7146944 9.49957294,24.6970871 9.4064827,24.6618726 L7.27029796,23.8525906 C6.84935398,23.6931471 6.63741472,23.2224789 6.79685826,22.8015349 L7.63124683,20.599486 C6.67018379,19.9807864 5.82845886,19.1891117 5.15172049,18.2670129 L3.00477576,19.2341081 C2.80767225,19.3231226 2.58350572,19.3298068 2.38118524,19.2531826 C2.17902779,19.1765584 2.0155085,19.0228209 1.92682007,18.8257174 L0.988581259,16.7430066 C0.899729799,16.5459031 0.892882531,16.3215735 0.969506725,16.1194161 C1.04613092,15.9170956 1.1998684,15.7537393 1.39697191,15.6648879 L3.54407967,14.6977927 C3.30197982,13.5800576 3.2667653,12.4248256 3.44022943,11.2951894 L1.2381805,10.4608008 C0.817236517,10.3013572 0.605297255,9.83068906 0.764740792,9.40974508 L1.57402271,7.27372337 C1.65064691,7.07140289 1.80438439,6.90804663 2.0014879,6.81919517 C2.19875445,6.73050674 2.423084,6.72365947 2.62507842,6.80012064 L4.82712736,7.63450921 C5.44582697,6.6736092 6.23766466,5.83172124 7.15960046,5.15498287 L6.1925053,3.00803814 C6.00762905,2.5975281 6.19038591,2.1149587 6.60089595,1.93008245 L8.68376981,0.991843638 C8.88087333,0.902992179 9.10536591,0.89630794 9.30736033,0.972769105 C9.50968081,1.0493933 9.67303708,1.20313078 9.76188854,1.40023429 L10.7288207,3.54701599 C11.8437842,3.30491614 13.0006465,3.26888647 14.131587,3.44332878 L14.9658126,1.24144288 C15.0424368,1.0391224 15.1961743,0.875766135 15.3932778,0.786914675 C15.5905443,0.698063215 15.8148739,0.691378977 16.0168683,0.767840141 L18.15289,1.57728509 C18.573834,1.73672863 18.7857732,2.20739682 18.6263297,2.6283408 L17.7919411,4.83038974 C18.7528411,5.44908935 19.5947291,6.24092704 20.2714675,7.16286283 L22.4184122,6.19576768 C22.8285962,6.01105446 23.3114916,6.19364829 23.4963679,6.60415833 L24.4346067,8.68686916 C24.5234582,8.88397267 24.5303054,9.10830223 24.4536812,9.31045968 C24.377057,9.51278016 24.2233196,9.67613642 24.026216,9.76498788 L21.8792713,10.732083 C22.1213712,11.8499811 22.1565857,13.0048871 21.9831215,14.1346864 L24.1851705,14.969075 C24.387491,15.0456991 24.5508472,15.1994366 24.6396987,15.3965401 C24.7285501,15.5936437 24.7353974,15.8179732 24.6587732,16.0201307 L23.8494913,18.1563154 C23.6900478,18.5772594 23.2195426,18.7893617 22.7984356,18.6297551 L20.5963867,17.7953665 C19.977687,18.7562665 19.1858493,19.5981545 18.2639136,20.2748929 L19.2310087,22.4218376 Z M17.8801405,14.6731751 C18.4033044,13.2926354 18.3574929,11.7909642 17.7510205,10.4448238 C17.1447112,9.09884648 16.0504525,8.06947379 14.6699128,7.5464729 C14.0389859,7.30747062 13.3805069,7.18617615 12.7127352,7.18617615 C10.4298233,7.18617615 8.35232941,8.62100496 7.54321052,10.7567006 C7.02020963,12.1372404 7.06602112,13.6389115 7.67233044,14.9848889 C8.27863976,16.3310293 9.37289847,17.360402 10.7534382,17.8834028 C11.3843651,18.1224051 12.0428441,18.2436996 12.7106158,18.2436996 C14.9935277,18.2436996 17.0710216,16.8088708 17.8801405,14.6731751 Z" transform="matrix(-1 0 0 1 25.423 0)"/>
    <circle cx="12.712" cy="12.723" r="3.166" transform="matrix(-1 0 0 1 25.423 0)"/>
  </g>
</svg>
